public/intgram-mobile.svg

<svg width="24" height="24" viewBox="0 0 24 24" fill="none" xmlns="http://www.w3.org/2000/svg">
<circle cx="12" cy="12" r="11.7" fill="#075430" stroke="white" stroke-width="0.6"/>
<path d="M9.9842 7.19922H14.0162C15.5522 7.19922 16.8002 8.44722 16.8002 9.98322V14.0152C16.8002 14.7536 16.5069 15.4617 15.9848 15.9838C15.4627 16.5059 14.7546 16.7992 14.0162 16.7992H9.9842C8.4482 16.7992 7.2002 15.5512 7.2002 14.0152V9.98322C7.2002 9.24486 7.49351 8.53673 8.01561 8.01463C8.53771 7.49253 9.24583 7.19922 9.9842 7.19922ZM9.8882 8.15922C9.4299 8.15922 8.99038 8.34128 8.66631 8.66534C8.34225 8.9894 8.1602 9.42892 8.1602 9.88722V14.1112C8.1602 15.0664 8.933 15.8392 9.8882 15.8392H14.1122C14.5705 15.8392 15.01 15.6572 15.3341 15.3331C15.6581 15.009 15.8402 14.5695 15.8402 14.1112V9.88722C15.8402 8.93202 15.0674 8.15922 14.1122 8.15922H9.8882ZM14.5202 8.87922C14.6793 8.87922 14.8319 8.94243 14.9445 9.05495C15.057 9.16748 15.1202 9.32009 15.1202 9.47922C15.1202 9.63835 15.057 9.79096 14.9445 9.90348C14.8319 10.016 14.6793 10.0792 14.5202 10.0792C14.3611 10.0792 14.2085 10.016 14.0959 9.90348C13.9834 9.79096 13.9202 9.63835 13.9202 9.47922C13.9202 9.32009 13.9834 9.16748 14.0959 9.05495C14.2085 8.94243 14.3611 8.87922 14.5202 8.87922ZM12.0002 9.59922C12.6367 9.59922 13.2472 9.85208 13.6973 10.3022C14.1473 10.7522 14.4002 11.3627 14.4002 11.9992C14.4002 12.6357 14.1473 13.2462 13.6973 13.6963C13.2472 14.1464 12.6367 14.3992 12.0002 14.3992C11.3637 14.3992 10.7532 14.1464 10.3031 13.6963C9.85305 13.2462 9.6002 12.6357 9.6002 11.9992C9.6002 11.3627 9.85305 10.7522 10.3031 10.3022C10.7532 9.85208 11.3637 9.59922 12.0002 9.59922ZM12.0002 10.5592C11.6183 10.5592 11.252 10.7109 10.982 10.981C10.7119 11.251 10.5602 11.6173 10.5602 11.9992C10.5602 12.3811 10.7119 12.7474 10.982 13.0175C11.252 13.2875 11.6183 13.4392 12.0002 13.4392C12.3821 13.4392 12.7484 13.2875 13.0184 13.0175C13.2885 12.7474 13.4402 12.3811 13.4402 11.9992C13.4402 11.6173 13.2885 11.251 13.0184 10.981C12.7484 10.7109 12.3821 10.5592 12.0002 10.5592Z" fill="white"/>
</svg>

<svg xmlns="http://www.w3.org/2000/svg" width="24" height="24" fill="none" viewBox="0 0 24 24"><circle cx="12" cy="12" r="11.7" fill="#075430" stroke="#fff" stroke-width=".6"/><path fill="#fff" d="M9.984 7.2h4.032A2.786 2.786 0 0 1 16.8 9.982v4.032a2.784 2.784 0 0 1-2.784 2.784H9.984A2.786 2.786 0 0 1 7.2 14.015V9.983A2.784 2.784 0 0 1 9.984 7.2m-.096.96A1.73 1.73 0 0 0 8.16 9.886v4.224c0 .955.773 1.728 1.728 1.728h4.224a1.73 1.73 0 0 0 1.728-1.728V9.887c0-.955-.773-1.728-1.728-1.728zm4.632.72a.6.6 0 1 1 0 1.2.6.6 0 0 1 0-1.2M12 9.6a2.4 2.4 0 1 1 0 4.8 2.4 2.4 0 0 1 0-4.8m0 .96a1.44 1.44 0 1 0 0 2.879 1.44 1.44 0 0 0 0-2.88"/></svg>
